!!!OTL: Der Holzhauer.
!!!OTL-incipit: BIN I SO A SAUBERA BURSCH
!!!ARE: Europa, Mitteleuropa, Deutschland, Boehmen
!!!SCT: Z1294
!!!YEM: Copyright 1995, estate of Helmut Schaffrath.
**kern	**text
*ICvox	*
*M3/4	*
*k[b-e-]	*
*B-:	*
=1	=1
!LO:TX:a:t=Aus Böhmen.	!
{4dd	Bin
8ddL	i
8ccJ	.
8dd	ſo
8b-	a
=2	=2
8ddL	ſau-
8ccJ	.
8dd	-be-
8ee-	-ra
4ff}	Burſch
=3	=3
{4dd	un
8ddL	muß
8ffJ	.
8ccL	in's
8ee-J	.
=4	=4
8ddL	Holʒ
8ccJ	.
8dd	haua
8ee-	.
4ff}	furt,
=5	=5
{4gg	ſchod
4ff	is
4een	um
=6	=6
2ff	mi!
4r}	.
=7:|:	=7:|:
{8dd	Hätt'ſt
8ee-	mi
4ff	g'numma,
8ddL	.
8ffJ	.
=8	=8
4ee-	wärſt
(8ccL	ma
8ee-J)	.
4dd}	Waib,
=9	=9
{8b-	wär
8cc	i
4dd	vom
(8b-L	Holʒ-
8ddJ)	.
=10	=10
(8ccL	-hau-
8ee-J)	.
(8aL	-a
8ccJ)	.
4b-}	frei,
=11	=11
{8b-	wär
8cc	i
4dd	vom
(8b-L	Holʒ-
8ddJ)	.
=12	=12
(8ccL	-hau-
8ee-J)	.
(8aL	-a
8ccJ)	.
4b-}	frei,
=13	=13
{(8ddL	o-
8b-J)	.
(8ddL	-da
8ee-J)	.
(8ffL	ſua
8ddJ)	.
=14	=14
2b-	niät!
4r}	.
==	==
!!!AGN: Handwerker -, Bauern - Lied
!!!ONB: ESAC (Essen Associative Code) Database: ZUCCAL
!!!AMT: simple triple
!!!AIN: vox
!!!EED: Helmut Schaffrath
!!!EEV: 1.0
!!!GTL: VII. Jagd-, Bunkt- und GewerksLieder.
!!!URL-scan: https://www.digitale-sammlungen.de/de/view/bsb11160573?page=537
!!!ENC: Anna Maria Matuszewska
!!!EEV: 2025/02/07
*-	*-
